X:771
T:Morag Haig-Thomas
C:Donald Ross Riddell
S:Sarah-Jane Fifield
Z:Nigel Gatherer
M:4/4
L:1/8
K:D
F/G | A2 F>E D2 d>e | f>ed<B d2
F/G | A2 F>E D2 g>f | e<EG>F E2
F/G | A2 F>E D2 d>e | f>ed<B d3
A   | B>AB<d A<Fd>F | E<DF>E D3 ||
f>g | a2 f>e d2 f>e | dF A2
f>g | a2 f>e d2 g>f | e<EG>F E2
f>g | a2 f>e d2 f>e | dF A3
d   | B>AB<d A<Fd>F | E<DF>E D3 |]
